X:3
T:Solstice Song
C:Tom Graves, Dec 1995
M:2/4
L:1/8
Q:1/4=160
K:EMin % 1 sharp
B3 c|B2 G2|AGAB|A2 GF|E2 E2|EFGE|F3 E|F4|
B3 c|B2 G2|AGAB|A2 GF|E2 B2|AGFG|E4-|E4 :|
B3 c|B2 B2|d4|d4|G3 A|G2 G2|F4-|F4|
EDEF|G2 E2|F3 B|B3 B|dGAG|F2 FG|E4-|E4 :|
